icon-themes/sifr_svg/cmd/sc_managexmlsource.svg

<svg viewBox="0 0 16 16" xmlns="http://www.w3.org/2000/svg"><path d="m8 1-2 14h2l2-14zm-3.3 2-4.7 4.3v2.4l3.7 4.3h1.3v-1.48l-3.49-4.02 4.49-4.02v-1.48zm6.3 0v1.48l3.5 4.02-4.5 4.02v1.48h1.3l4.7-4.3v-2.4l-3.7-4.3z" fill="#555753"/></svg>

<svg xmlns="http://www.w3.org/2000/svg" viewBox="0 0 16 16">
 <path
   style="fill:#555753"
   d="M 8,1 6,15 H 8 L 10,1 Z M 4.7,3 0,7.3V 9.7 L 3.7,14 H 5 V 12.52 L 1.51,8.5 6,4.48 V 3 Z M 11,3 V 4.48 L 14.5,8.5 10,12.52 V 14 h 1.3 L 16,9.7 V 7.3 L 12.3,3 Z"
   />
</svg>
